img/home-icon.svg

<svg width="31" height="25" viewBox="0 0 31 25" fill="none" xmlns="http://www.w3.org/2000/svg">
<path id="home" d="M26.0109 14.2374V23.4849C26.0109 23.8188 25.8917 24.1078 25.6533 24.3519C25.4149 24.5959 25.1326 24.7179 24.8064 24.7179H17.5796V17.3199H12.7618V24.7179H5.53507C5.20886 24.7179 4.92657 24.5959 4.68819 24.3519C4.4498 24.1078 4.33061 23.8188 4.33061 23.4849V14.2374C4.33061 14.2245 4.33375 14.2053 4.34002 14.1796C4.34629 14.1539 4.34943 14.1346 4.34943 14.1218L15.1707 4.98982L25.992 14.1218C26.0046 14.1475 26.0109 14.186 26.0109 14.2374ZM30.2076 12.908L29.0408 14.3337C28.9404 14.4493 28.8087 14.5199 28.6456 14.5456H28.5891C28.426 14.5456 28.2943 14.5007 28.1939 14.4108L15.1707 3.29444L2.14753 14.4108C1.99697 14.5135 1.84642 14.5585 1.69586 14.5456C1.53276 14.5199 1.40102 14.4493 1.30065 14.3337L0.133829 12.908C0.0334572 12.7796 -0.0104554 12.6287 0.00209107 12.4553C0.0146375 12.2819 0.0836429 12.1438 0.209107 12.0411L13.7404 0.500908C14.1419 0.166969 14.6187 0 15.1707 0C15.7228 0 16.1995 0.166969 16.601 0.500908L21.193 4.43111V0.6743C21.193 0.494487 21.2495 0.346783 21.3624 0.231189C21.4753 0.115594 21.6196 0.0577971 21.7952 0.0577971H25.4086C25.5843 0.0577971 25.7286 0.115594 25.8415 0.231189C25.9544 0.346783 26.0109 0.494487 26.0109 0.6743V8.53471L30.1324 12.0411C30.2578 12.1438 30.3268 12.2819 30.3394 12.4553C30.3519 12.6287 30.308 12.7796 30.2076 12.908Z" fill="#0E0D0F"/>
</svg>

<svg width="31" height="25" fill="none" xmlns="http://www.w3.org/2000/svg"><path d="M26.01 14.237v9.248a1.2 1.2 0 0 1-.357.867c-.238.244-.52.366-.847.366H17.58V17.32h-4.818v7.398H5.535c-.326 0-.608-.122-.847-.366a1.2 1.2 0 0 1-.357-.867v-9.248c0-.012.003-.032.009-.057a.27.27 0 0 0 .01-.058L15.17 4.99l10.822 9.132a.273.273 0 0 1 .019.115zm4.198-1.329-1.167 1.426a.636.636 0 0 1-.395.212h-.057a.57.57 0 0 1-.395-.135L15.17 3.294 2.148 14.411a.688.688 0 0 1-.452.135.636.636 0 0 1-.395-.212L.134 12.908a.635.635 0 0 1-.132-.453.564.564 0 0 1 .207-.414L13.74.501C14.142.167 14.62 0 15.17 0c.553 0 1.03.167 1.431.5l4.592 3.931V.674c0-.18.056-.327.17-.443a.579.579 0 0 1 .432-.173h3.614c.175 0 .32.058.433.173.112.116.169.263.169.443v7.86l4.121 3.507c.126.103.195.24.207.414a.635.635 0 0 1-.131.453z" fill="#0E0D0F"/></svg>
